X: 1
T: Gone Fishing
M: 4/4
L: 1/8
R: reel
K: Bmin
|:&quot;Bm&quot;B,2FE DEFA|BAFE DECD|B,F (3FFF EFcd-|&quot;Em&quot;dc^AF EFDC|
&quot;Bm&quot;B,2(3FFF EFC2|DCDF EB,C2|&quot;G&quot;zFEC DCDF|1&quot;F#&quot;E/F/E/z/^A,B, CDEF:|2E/F/E/z/^A,B, CDEF-||
|:&quot;Bm&quot;~F2EF GFEG|~F2EF DEC2|zFEF GFEF|&quot;F#&quot;dBFD (3B,CD C2|
&quot;Bm&quot;~F2EF GEF2|zDC2 D2E2|&quot;E&quot;FB, (3B,B,B, FEDC-|&quot;F#&quot;CDEF D/E/D/z/ B,2:|
